SharedPackages/Infrastructure/DesignResourcesKitIcons/Sources/DesignResourcesKitIcons/DesignSystemImages.xcassets/Color/16px/Bookmark-Import-Color-16.imageset/Bookmark-Import-Color-16.svg

<svg width="16" height="16" viewBox="0 0 16 16" fill="none" xmlns="http://www.w3.org/2000/svg">
<g clip-path="url(#clip0_13193_106341)">
<path d="M9.125 0.5C10.3409 0.5 11.4062 1.14316 12 2.10777C12.3569 2.6876 12 3.00167 11.8693 3.00167C9.16829 3.07097 7 5.28227 7 8C7 10.7614 9.23858 13 12 13C12 13 12.5 13.1813 12.5 13.8232C12.4998 15.1757 10.9878 15.978 9.86719 15.2207L7.94531 13.9219C7.37448 13.5361 6.62552 13.5361 6.05469 13.9219L4.13281 15.2207C3.01218 15.978 1.50019 15.1757 1.5 13.8232V3.875C1.5 2.01104 3.01104 0.5 4.875 0.5H9.125Z" fill="#4397E0"/>
<path d="M9.125 0C10.6212 0 11.919 0.847994 12.5646 2.08955C12.798 2.53832 12.3699 2.98945 11.8643 3.00293C11.4949 1.84162 10.4087 1 9.125 1H4.875C3.28718 1 2 2.28718 2 3.875V13.8232C2.00019 14.7749 3.06397 15.3395 3.85254 14.8066L5.77539 13.5078C6.51536 13.0078 7.48464 13.0078 8.22461 13.5078L10.1475 14.8066C10.936 15.3395 11.9998 14.7749 12 13.8232V13C12.0277 13 12.0553 12.9998 12.0829 12.9993C12.5602 12.9914 13 13.3458 13 13.8232C12.9998 15.5763 11.0406 16.6171 9.58789 15.6357L7.66504 14.3359C7.26334 14.0645 6.73666 14.0645 6.33496 14.3359L4.41211 15.6357C2.95944 16.6171 1.00019 15.5763 1 13.8232V3.875C1 1.7349 2.7349 5.19798e-08 4.875 0H9.125Z" fill="#045EB2"/>
<path d="M16 8C16 10.2091 14.2091 12 12 12C9.79086 12 8 10.2091 8 8C8 5.79086 9.79086 4 12 4C14.2091 4 16 5.79086 16 8Z" fill="#F5F5F5"/>
<path d="M15 8C15 6.34315 13.6569 5 12 5C10.3431 5 9 6.34315 9 8C9 9.65685 10.3431 11 12 11V12C9.79086 12 8 10.2091 8 8C8 5.79086 9.79086 4 12 4C14.2091 4 16 5.79086 16 8C16 10.2091 14.2091 12 12 12V11C13.6569 11 15 9.65685 15 8Z" fill="#686868"/>
<path d="M10.0822 8.27539C9.95408 8.08131 9.97582 7.81734 10.1467 7.64648C10.3175 7.47564 10.5815 7.45389 10.7756 7.58203L10.8537 7.64648L11.5002 8.29297L11.5002 6.5L11.51 6.39941C11.5565 6.17145 11.7585 6 12.0002 6C12.2419 6.00003 12.4439 6.17146 12.4904 6.39941L12.5002 6.5L12.5002 8.29297L13.1467 7.64648L13.2248 7.58203C13.4189 7.45388 13.6829 7.47565 13.8537 7.64648C14.0246 7.81734 14.0463 8.08132 13.9182 8.27539L13.8537 8.35351L12.3537 9.85351C12.1585 10.0488 11.8419 10.0487 11.6467 9.85351L10.1467 8.35351L10.0822 8.27539Z" fill="#045EB2"/>
</g>
<defs>
<clipPath id="clip0_13193_106341">
<rect width="16" height="16" fill="white"/>
</clipPath>
</defs>
</svg>

<svg fill="none" viewBox="0 0 16 16" xmlns="http://www.w3.org/2000/svg">
  <g clip-path="url(#Bookmark-Import-Color-16_svg__a)">
    <path fill="url(#Bookmark-Import-Color-16_svg__b)" d="M9.125.5A3.37 3.37 0 0 1 12 2.108c.357.58 0 .894-.13.894A5 5 0 0 0 12 13s.5.181.5.823c0 1.353-1.512 2.155-2.633 1.398l-1.922-1.3a1.689 1.689 0 0 0-1.89 0l-1.922 1.3c-1.12.757-2.633-.045-2.633-1.398V3.875A3.375 3.375 0 0 1 4.875.5h4.25Z"/>
    <path fill="url(#Bookmark-Import-Color-16_svg__c)" d="M9.125 0c1.496 0 2.794.848 3.44 2.09.233.448-.195.9-.7.913A2.875 2.875 0 0 0 9.124 1h-4.25A2.875 2.875 0 0 0 2 3.875v9.948a1.187 1.187 0 0 0 1.853.984l1.922-1.3c.74-.5 1.71-.5 2.45 0l1.923 1.3A1.187 1.187 0 0 0 12 13.823V13h.083c.477-.009.917.346.917.823 0 1.753-1.96 2.794-3.412 1.813l-1.923-1.3a1.188 1.188 0 0 0-1.33 0l-1.923 1.3C2.96 16.617 1 15.576 1 13.823V3.875A3.875 3.875 0 0 1 4.875 0h4.25Z"/>
    <path fill="#F5F5F5" d="M16 8a4 4 0 1 1-8 0 4 4 0 0 1 8 0Z"/>
    <path fill="url(#Bookmark-Import-Color-16_svg__d)" d="M15 8a3 3 0 1 0-3 3v1a4 4 0 1 1 0-8 4 4 0 0 1 0 8v-1a3 3 0 0 0 3-3Z"/>
    <path fill="#2B55CA" d="M10.082 8.275a.5.5 0 0 1 .694-.693l.078.064.646.647V6.5l.01-.1a.5.5 0 0 1 .98 0l.01.1v1.793l.647-.647.078-.064a.5.5 0 0 1 .693.693l-.064.079-1.5 1.5a.5.5 0 0 1-.707 0l-1.5-1.5-.065-.079Z"/>
  </g>
  <defs>
    <linearGradient id="Bookmark-Import-Color-16_svg__b" x1="7" x2="7" y1=".5" y2="17" gradientUnits="userSpaceOnUse">
      <stop stop-color="#8FABF9"/>
      <stop offset="1" stop-color="#7295F6"/>
    </linearGradient>
    <linearGradient id="Bookmark-Import-Color-16_svg__c" x1="7" x2="7" y1=".5" y2="17" gradientUnits="userSpaceOnUse">
      <stop stop-color="#3969EF"/>
      <stop offset="1" stop-color="#1E42A4"/>
    </linearGradient>
    <linearGradient id="Bookmark-Import-Color-16_svg__d" x1="12" x2="12" y1="4" y2="12" gradientUnits="userSpaceOnUse">
      <stop stop-color="#AAA"/>
      <stop offset="1" stop-color="#666"/>
    </linearGradient>
    <clipPath id="Bookmark-Import-Color-16_svg__a">
      <path fill="#fff" d="M0 0h16v16H0z"/>
    </clipPath>
  </defs>
</svg>
